images/ic_token_iuni.svg

<svg height="250" viewBox="0 0 250 250" width="250" xmlns="http://www.w3.org/2000/svg" xmlns:xlink="http://www.w3.org/1999/xlink"><linearGradient id="a" gradientUnits="userSpaceOnUse" x1="21.428574" x2="221.428598" y1="58.9285785" y2="230.3571705"><stop offset="0" stop-color="#fff"/><stop offset="1" stop-color="#ffe1ef"/></linearGradient><path d="m0 125c0-69.035156 55.964844-125 125-125s125 55.964844 125 125-55.964844 125-125 125-125-55.964844-125-125zm0 0" fill="url(#a)"/><g fill="#ff007a"><path d="m95.941406 58.742188c-1.917968-.296876-2-.332032-1.097656-.472657 1.730469-.261719 5.816406.097657 8.632812.765625 6.574219 1.558594 12.554688 5.550782 18.941407 12.640625l1.695312 1.882813 2.425781-.390625c10.222657-1.636719 20.625-.335938 29.324219 3.671875 2.390625 1.101562 6.164063 3.296875 6.636719 3.859375.148438.179687.425781 1.339843.613281 2.574219.644531 4.269531.320313 7.542968-.988281 9.988281-.714844 1.332031-.753906 1.753906-.273438 2.890625.382813.910156 1.449219 1.582031 2.503907 1.582031 2.160156-.003906 4.488281-3.488281 5.566406-8.339844l.429687-1.925781.847657.960938c4.652343 5.257812 8.308593 12.425781 8.9375 17.527343l.160156 1.332031-.78125-1.210937c-1.34375-2.078125-2.699219-3.496094-4.429687-4.640625-3.121094-2.058594-6.421876-2.761719-15.164063-3.21875-7.898437-.414062-12.367187-1.089844-16.796875-2.527344-7.539062-2.453125-11.339844-5.71875-20.296875-17.433594-3.976563-5.203124-6.433594-8.085937-8.878906-10.402343-5.558594-5.269531-11.019531-8.03125-18.007813-9.113281zm0 0"/><path d="m164.277344 70.359375c.199218-3.484375.671875-5.785156 1.628906-7.886719.375-.832031.730469-1.511718.785156-1.511718.054688 0-.109375.613281-.367187 1.363281-.691407 2.039062-.804688 4.828125-.328125 8.070312.605468 4.117188.949218 4.710938 5.3125 9.160157 2.046875 2.082031 4.429687 4.714843 5.289062 5.84375l1.570313 2.054687-1.570313-1.46875c-1.917968-1.792969-6.328125-5.292969-7.304687-5.796875-.652344-.332031-.75-.328125-1.152344.070312-.371094.371094-.453125.925782-.503906 3.542969-.078125 4.082031-.636719 6.703125-1.984375 9.324219-.726563 1.414062-.84375 1.113281-.183594-.488281.492188-1.191407.542969-1.71875.539062-5.667969-.007812-7.941406-.953124-9.847656-6.496093-13.117188-1.402344-.832031-3.71875-2.023437-5.140625-2.65625-1.425782-.632812-2.554688-1.183593-2.515625-1.222656.15625-.15625 5.5625 1.417969 7.738281 2.25 3.238281 1.242188 3.773438 1.402344 4.164062 1.253906.265626-.101562.394532-.867187.519532-3.117187zm0 0"/><path d="m99.667969 83.941406c-3.894531-5.347656-6.304688-13.546875-5.78125-19.675781l.160156-1.898437.886719.164062c1.664062.300781 4.535156 1.367188 5.878906 2.179688 3.691406 2.234374 5.289062 5.175781 6.914062 12.730468.476563 2.214844 1.097657 4.71875 1.386719 5.566406.460938 1.363282 2.210938 4.550782 3.632813 6.621094 1.023437 1.492188.34375 2.195313-1.921875 1.992188-3.453125-.308594-8.136719-3.53125-11.15625-7.679688zm0 0"/><path d="m159.554688 123.746094c-18.203126-7.308594-24.613282-13.652344-24.613282-24.359375 0-1.574219.054688-2.863281.121094-2.863281.0625 0 .769531.519531 1.5625 1.15625 3.691406 2.949218 7.828125 4.210937 19.269531 5.878906 6.734375.976562 10.523438 1.769531 14.019531 2.925781 11.113282 3.675781 17.988282 11.132813 19.628907 21.289063.476562 2.953124.195312 8.488281-.578125 11.40625-.609375 2.300781-2.46875 6.457031-2.964844 6.613281-.136719.046875-.269531-.476563-.304688-1.1875-.1875-3.816407-2.121093-7.527344-5.367187-10.308594-3.6875-3.164063-8.648437-5.683594-20.773437-10.550781zm0 0"/><path d="m146.773438 126.785156c-.230469-1.355468-.625-3.082031-.878907-3.84375l-.464843-1.378906.863281.964844c1.191406 1.335937 2.136719 3.046875 2.9375 5.324218.609375 1.738282.675781 2.257813.671875 5.082032-.003906 2.773437-.082032 3.355468-.644532 4.917968-.886718 2.46875-1.992187 4.21875-3.839843 6.097657-3.328125 3.375-7.601563 5.242187-13.773438 6.015625-1.070312.136718-4.199219.363281-6.945312.503906-6.925781.359375-11.484375 1.101562-15.578125 2.539062-.589844.203126-1.117188.328126-1.167969.277344-.167969-.164062 2.621094-1.824218 4.925781-2.929687 3.246094-1.558594 6.480469-2.410157 13.722656-3.613281 3.578126-.59375 7.273438-1.316407 8.210938-1.601563 8.863281-2.710937 13.417969-9.703125 11.960938-18.355469zm0 0"/><path d="m155.117188 141.5625c-2.417969-5.183594-2.972657-10.191406-1.648438-14.859375.140625-.5.371094-.90625.507812-.90625.136719 0 .707032.308594 1.265626.683594 1.117187.746093 3.351562 2.007812 9.308593 5.246093 7.429688 4.039063 11.667969 7.167969 14.550781 10.742188 2.523438 3.132812 4.082032 6.699219 4.835938 11.046875.425781 2.460937.175781 8.386719-.457031 10.867187-2 7.820313-6.644531 13.960938-13.265625 17.546876-.972656.523437-1.84375.953124-1.9375.957031-.09375.003906.261718-.894531.785156-1.992188 2.230469-4.644531 2.484375-9.164062.796875-14.191406-1.03125-3.082031-3.132813-6.835937-7.378906-13.1875-4.9375-7.382813-6.148438-9.347656-7.363281-11.953125zm0 0"/><path d="m86.738281 169.539062c6.757813-5.6875 15.160157-9.730468 22.820313-10.96875 3.296875-.535156 8.796875-.324218 11.851562.457032 4.898438 1.25 9.277344 4.050781 11.558594 7.386718 2.226562 3.257813 3.179688 6.101563 4.175781 12.421876.394531 2.492187.820313 4.996093.949219 5.5625.746094 3.277343 2.199219 5.894531 4 7.210937 2.863281 2.089844 7.789062 2.21875 12.636719.332031.820312-.320312 1.535156-.542968 1.585937-.492187.175782.175781-2.265625 1.804687-3.984375 2.660156-2.316406 1.15625-4.160156 1.601563-6.609375 1.601563-4.4375 0-8.121094-2.25-11.199218-6.84375-.605469-.902344-1.964844-3.609376-3.019532-6.015626-3.25-7.382812-4.851562-9.632812-8.621094-12.09375-3.28125-2.144531-7.511718-2.527343-10.695312-.96875-4.179688 2.042969-5.347656 7.371094-2.351562 10.746094 1.1875 1.34375 3.410156 2.5 5.222656 2.726563 3.394531.421875 6.3125-2.15625 6.3125-5.574219 0-2.21875-.855469-3.484375-3.007813-4.453125-2.941406-1.324219-6.101562.222656-6.089843 2.976563.007812 1.175781.519531 1.914062 1.703124 2.445312.757813.34375.773438.371094.15625.242188-2.699218-.558594-3.332031-3.800782-1.160156-5.957032 2.605469-2.585937 7.992188-1.445312 9.84375 2.085938.773438 1.480468.867188 4.433594.1875 6.21875-1.515625 3.988281-5.9375 6.085937-10.421875 4.945312-3.054687-.777344-4.300781-1.621094-7.980469-5.402344-6.398437-6.570312-8.882812-7.84375-18.105468-9.28125l-1.769532-.273437zm0 0"/><path d="m56.71875 51.90625c21.367188 25.863281 36.082031 36.53125 37.71875 38.785156 1.351562 1.863282.839844 3.535156-1.472656 4.847656-1.285156.730469-3.929688 1.46875-5.253906 1.46875-1.5 0-2.011719-.578124-2.011719-.578124-.867188-.820313-1.359375-.675782-5.816407-8.570313-6.191406-9.582031-11.375-17.527344-11.515624-17.660156-.324219-.308594-.320313-.296875 10.882812 19.691406 1.8125 4.167969.359375 5.699219.359375 6.292969 0 1.207031-.328125 1.839844-1.824219 3.5-2.488281 2.769531-3.601562 5.882812-4.402344 12.324218-.902343 7.21875-3.433593 12.316407-10.453124 21.046876-4.109376 5.109374-4.78125 6.042968-5.816407 8.105468-1.304687 2.589844-1.664062 4.042969-1.808593 7.320313-.15625 3.460937.144531 5.699219 1.203124 9.007812.929688 2.898438 1.898438 4.8125 4.378907 8.636719 2.136719 3.304688 3.367187 5.761719 3.367187 6.71875 0 .765625.148438.765625 3.460938.019531 7.929687-1.785156 14.371094-4.925781 17.992187-8.777343 2.242188-2.382813 2.765625-3.695313 2.785157-6.960938.011718-2.136719-.066407-2.582031-.644532-3.8125-.941406-1.996094-2.65625-3.660156-6.4375-6.238281-4.953125-3.375-7.070312-6.09375-7.65625-9.835938-.476562-3.066406.078125-5.230469 2.820313-10.957031 2.835937-5.929688 3.539062-8.457031 4.015625-14.433594.304687-3.859375.730468-5.382812 1.84375-6.605468 1.160156-1.273438 2.203125-1.707032 5.074218-2.097657 4.683594-.636719 7.664063-1.84375 10.113282-4.09375 2.125-1.953125 3.011718-3.835937 3.148437-6.667969l.105469-2.148437-1.1875-1.382813c-4.300781-5-45.851562-40.875-46.113281-40.875-.058594 0 1.359375 1.769532 3.144531 3.929688zm9.949219 100.492188c.972656-1.71875.457031-3.925782-1.167969-5.007813-1.539062-1.015625-3.925781-.535156-3.925781.792969 0 .402344.226562.699218.730469.957031.855468.4375.914062.929687.246093 1.9375-.679687 1.019531-.625 1.914063.152344 2.523437 1.257813.980469 3.035156.4375 3.964844-1.203124zm0 0" fill-rule="evenodd"/><path d="m103.828125 104.273438c-2.195313.671874-4.332031 2.996093-4.992187 5.429687-.402344 1.484375-.175782 4.089844.429687 4.898437.976563 1.296876 1.917969 1.640626 4.476563 1.621094 5.003906-.035156 9.355468-2.171875 9.859374-4.847656.414063-2.195312-1.496093-5.234375-4.128906-6.570312-1.355468-.6875-4.246094-.960938-5.644531-.53125zm5.851563 4.558593c.773437-1.089843.433593-2.273437-.878907-3.074219-2.5-1.519531-6.277343-.261718-6.277343 2.09375 0 1.171876 1.96875 2.449219 3.777343 2.449219 1.203125 0 2.847657-.714843 3.378907-1.46875zm0 0" fill-rule="evenodd"/></g></svg>

<svg xmlns="http://www.w3.org/2000/svg" xmlns:xlink="http://www.w3.org/1999/xlink" width="250px" height="250px" viewBox="0 0 250 250" version="1.1">
<defs>
<linearGradient id="linear0" gradientUnits="userSpaceOnUse" x1="6" y1="16.5" x2="62" y2="64.5" gradientTransform="matrix(3.571429,0,0,3.571429,0,0)">
<stop offset="0" style="stop-color:rgb(100%,100%,100%);stop-opacity:1;"/>
<stop offset="1" style="stop-color:rgb(100%,88.235295%,93.725491%);stop-opacity:1;"/>
</linearGradient>
</defs>
<g id="surface1">
<path style=" stroke:none;fill-rule:nonzero;fill:url(#linear0);" d="M 0 125 C 0 55.964844 55.964844 0 125 0 C 194.035156 0 250 55.964844 250 125 C 250 194.035156 194.035156 250 125 250 C 55.964844 250 0 194.035156 0 125 Z M 0 125 "/>
<path style=" stroke:none;fill-rule:nonzero;fill:rgb(100%,0%,47.843137%);fill-opacity:1;" d="M 95.941406 58.742188 C 94.023438 58.445312 93.941406 58.410156 94.84375 58.269531 C 96.574219 58.007812 100.660156 58.367188 103.476562 59.035156 C 110.050781 60.59375 116.03125 64.585938 122.417969 71.675781 L 124.113281 73.558594 L 126.539062 73.167969 C 136.761719 71.53125 147.164062 72.832031 155.863281 76.839844 C 158.253906 77.941406 162.027344 80.136719 162.5 80.699219 C 162.648438 80.878906 162.925781 82.039062 163.113281 83.273438 C 163.757812 87.542969 163.433594 90.816406 162.125 93.261719 C 161.410156 94.59375 161.371094 95.015625 161.851562 96.152344 C 162.234375 97.0625 163.300781 97.734375 164.355469 97.734375 C 166.515625 97.730469 168.84375 94.246094 169.921875 89.394531 L 170.351562 87.46875 L 171.199219 88.429688 C 175.851562 93.6875 179.507812 100.855469 180.136719 105.957031 L 180.296875 107.289062 L 179.515625 106.078125 C 178.171875 104 176.816406 102.582031 175.085938 101.4375 C 171.964844 99.378906 168.664062 98.675781 159.921875 98.21875 C 152.023438 97.804688 147.554688 97.128906 143.125 95.691406 C 135.585938 93.238281 131.785156 89.972656 122.828125 78.257812 C 118.851562 73.054688 116.394531 70.171875 113.949219 67.855469 C 108.390625 62.585938 102.929688 59.824219 95.941406 58.742188 Z M 95.941406 58.742188 "/>
<path style=" stroke:none;fill-rule:nonzero;fill:rgb(100%,0%,47.843137%);fill-opacity:1;" d="M 164.277344 70.359375 C 164.476562 66.875 164.949219 64.574219 165.90625 62.472656 C 166.28125 61.640625 166.636719 60.960938 166.691406 60.960938 C 166.746094 60.960938 166.582031 61.574219 166.324219 62.324219 C 165.632812 64.363281 165.519531 67.152344 165.996094 70.394531 C 166.601562 74.511719 166.945312 75.105469 171.308594 79.554688 C 173.355469 81.636719 175.738281 84.269531 176.597656 85.398438 L 178.167969 87.453125 L 176.597656 85.984375 C 174.679688 84.191406 170.269531 80.691406 169.292969 80.1875 C 168.640625 79.855469 168.542969 79.859375 168.140625 80.257812 C 167.769531 80.628906 167.6875 81.183594 167.636719 83.800781 C 167.558594 87.882812 167 90.503906 165.652344 93.125 C 164.925781 94.539062 164.808594 94.238281 165.46875 92.636719 C 165.960938 91.445312 166.011719 90.917969 166.007812 86.96875 C 166 79.027344 165.054688 77.121094 159.511719 73.851562 C 158.109375 73.019531 155.792969 71.828125 154.371094 71.195312 C 152.945312 70.5625 151.816406 70.011719 151.855469 69.972656 C 152.011719 69.816406 157.417969 71.390625 159.59375 72.222656 C 162.832031 73.464844 163.367188 73.625 163.757812 73.476562 C 164.023438 73.375 164.152344 72.609375 164.277344 70.359375 Z M 164.277344 70.359375 "/>
<path style=" stroke:none;fill-rule:nonzero;fill:rgb(100%,0%,47.843137%);fill-opacity:1;" d="M 99.667969 83.941406 C 95.773438 78.59375 93.363281 70.394531 93.886719 64.265625 L 94.046875 62.367188 L 94.933594 62.53125 C 96.597656 62.832031 99.46875 63.898438 100.8125 64.710938 C 104.503906 66.945312 106.101562 69.886719 107.726562 77.441406 C 108.203125 79.65625 108.824219 82.160156 109.113281 83.007812 C 109.574219 84.371094 111.324219 87.558594 112.746094 89.628906 C 113.769531 91.121094 113.089844 91.824219 110.824219 91.621094 C 107.371094 91.3125 102.6875 88.089844 99.667969 83.941406 Z M 99.667969 83.941406 "/>
<path style=" stroke:none;fill-rule:nonzero;fill:rgb(100%,0%,47.843137%);fill-opacity:1;" d="M 159.554688 123.746094 C 141.351562 116.4375 134.941406 110.09375 134.941406 99.386719 C 134.941406 97.8125 134.996094 96.523438 135.0625 96.523438 C 135.125 96.523438 135.832031 97.042969 136.625 97.679688 C 140.316406 100.628906 144.453125 101.890625 155.894531 103.558594 C 162.628906 104.535156 166.417969 105.328125 169.914062 106.484375 C 181.027344 110.160156 187.902344 117.617188 189.542969 127.773438 C 190.019531 130.726562 189.738281 136.261719 188.964844 139.179688 C 188.355469 141.480469 186.496094 145.636719 186 145.792969 C 185.863281 145.839844 185.730469 145.316406 185.695312 144.605469 C 185.507812 140.789062 183.574219 137.078125 180.328125 134.296875 C 176.640625 131.132812 171.679688 128.613281 159.554688 123.746094 Z M 159.554688 123.746094 "/>
<path style=" stroke:none;fill-rule:nonzero;fill:rgb(100%,0%,47.843137%);fill-opacity:1;" d="M 146.773438 126.785156 C 146.542969 125.429688 146.148438 123.703125 145.894531 122.941406 L 145.429688 121.5625 L 146.292969 122.527344 C 147.484375 123.863281 148.429688 125.574219 149.230469 127.851562 C 149.839844 129.589844 149.90625 130.109375 149.902344 132.933594 C 149.898438 135.707031 149.820312 136.289062 149.257812 137.851562 C 148.371094 140.320312 147.265625 142.070312 145.417969 143.949219 C 142.089844 147.324219 137.816406 149.191406 131.644531 149.964844 C 130.574219 150.101562 127.445312 150.328125 124.699219 150.46875 C 117.773438 150.828125 113.214844 151.570312 109.121094 153.007812 C 108.53125 153.210938 108.003906 153.335938 107.953125 153.285156 C 107.785156 153.121094 110.574219 151.460938 112.878906 150.355469 C 116.125 148.796875 119.359375 147.945312 126.601562 146.742188 C 130.179688 146.148438 133.875 145.425781 134.8125 145.140625 C 143.675781 142.429688 148.230469 135.4375 146.773438 126.785156 Z M 146.773438 126.785156 "/>
<path style=" stroke:none;fill-rule:nonzero;fill:rgb(100%,0%,47.843137%);fill-opacity:1;" d="M 155.117188 141.5625 C 152.699219 136.378906 152.144531 131.371094 153.46875 126.703125 C 153.609375 126.203125 153.839844 125.796875 153.976562 125.796875 C 154.113281 125.796875 154.683594 126.105469 155.242188 126.480469 C 156.359375 127.226562 158.59375 128.488281 164.550781 131.726562 C 171.980469 135.765625 176.21875 138.894531 179.101562 142.46875 C 181.625 145.601562 183.183594 149.167969 183.9375 153.515625 C 184.363281 155.976562 184.113281 161.902344 183.480469 164.382812 C 181.480469 172.203125 176.835938 178.34375 170.214844 181.929688 C 169.242188 182.453125 168.371094 182.882812 168.277344 182.886719 C 168.183594 182.890625 168.539062 181.992188 169.0625 180.894531 C 171.292969 176.25 171.546875 171.730469 169.859375 166.703125 C 168.828125 163.621094 166.726562 159.867188 162.480469 153.515625 C 157.542969 146.132812 156.332031 144.167969 155.117188 141.5625 Z M 155.117188 141.5625 "/>
<path style=" stroke:none;fill-rule:nonzero;fill:rgb(100%,0%,47.843137%);fill-opacity:1;" d="M 86.738281 169.539062 C 93.496094 163.851562 101.898438 159.808594 109.558594 158.570312 C 112.855469 158.035156 118.355469 158.246094 121.410156 159.027344 C 126.308594 160.277344 130.6875 163.078125 132.96875 166.414062 C 135.195312 169.671875 136.148438 172.515625 137.144531 178.835938 C 137.539062 181.328125 137.964844 183.832031 138.09375 184.398438 C 138.839844 187.675781 140.292969 190.292969 142.09375 191.609375 C 144.957031 193.699219 149.882812 193.828125 154.730469 191.941406 C 155.550781 191.621094 156.265625 191.398438 156.316406 191.449219 C 156.492188 191.625 154.050781 193.253906 152.332031 194.109375 C 150.015625 195.265625 148.171875 195.710938 145.722656 195.710938 C 141.285156 195.710938 137.601562 193.460938 134.523438 188.867188 C 133.917969 187.964844 132.558594 185.257812 131.503906 182.851562 C 128.253906 175.46875 126.652344 173.21875 122.882812 170.757812 C 119.601562 168.613281 115.371094 168.230469 112.1875 169.789062 C 108.007812 171.832031 106.839844 177.160156 109.835938 180.535156 C 111.023438 181.878906 113.246094 183.035156 115.058594 183.261719 C 118.453125 183.683594 121.371094 181.105469 121.371094 177.6875 C 121.371094 175.46875 120.515625 174.203125 118.363281 173.234375 C 115.421875 171.910156 112.261719 173.457031 112.273438 176.210938 C 112.28125 177.386719 112.792969 178.125 113.976562 178.65625 C 114.734375 179 114.75 179.027344 114.132812 178.898438 C 111.433594 178.339844 110.800781 175.097656 112.972656 172.941406 C 115.578125 170.355469 120.964844 171.496094 122.816406 175.027344 C 123.589844 176.507812 123.683594 179.460938 123.003906 181.246094 C 121.488281 185.234375 117.066406 187.332031 112.582031 186.191406 C 109.527344 185.414062 108.28125 184.570312 104.601562 180.789062 C 98.203125 174.21875 95.71875 172.945312 86.496094 171.507812 L 84.726562 171.234375 Z M 86.738281 169.539062 "/>
<path style=" stroke:none;fill-rule:evenodd;fill:rgb(100%,0%,47.843137%);fill-opacity:1;" d="M 56.71875 51.90625 C 78.085938 77.769531 92.800781 88.4375 94.4375 90.691406 C 95.789062 92.554688 95.277344 94.226562 92.964844 95.539062 C 91.679688 96.269531 89.035156 97.007812 87.710938 97.007812 C 86.210938 97.007812 85.699219 96.429688 85.699219 96.429688 C 84.832031 95.609375 84.339844 95.753906 79.882812 87.859375 C 73.691406 78.277344 68.507812 70.332031 68.367188 70.199219 C 68.042969 69.890625 68.046875 69.902344 79.25 89.890625 C 81.0625 94.058594 79.609375 95.589844 79.609375 96.183594 C 79.609375 97.390625 79.28125 98.023438 77.785156 99.683594 C 75.296875 102.453125 74.183594 105.566406 73.382812 112.007812 C 72.480469 119.226562 69.949219 124.324219 62.929688 133.054688 C 58.820312 138.164062 58.148438 139.097656 57.113281 141.160156 C 55.808594 143.75 55.449219 145.203125 55.304688 148.480469 C 55.148438 151.941406 55.449219 154.179688 56.507812 157.488281 C 57.4375 160.386719 58.40625 162.300781 60.886719 166.125 C 63.023438 169.429688 64.253906 171.886719 64.253906 172.84375 C 64.253906 173.609375 64.402344 173.609375 67.714844 172.863281 C 75.644531 171.078125 82.085938 167.9375 85.707031 164.085938 C 87.949219 161.703125 88.472656 160.390625 88.492188 157.125 C 88.503906 154.988281 88.425781 154.542969 87.847656 153.3125 C 86.90625 151.316406 85.191406 149.652344 81.410156 147.074219 C 76.457031 143.699219 74.339844 140.980469 73.753906 137.238281 C 73.277344 134.171875 73.832031 132.007812 76.574219 126.28125 C 79.410156 120.351562 80.113281 117.824219 80.589844 111.847656 C 80.894531 107.988281 81.320312 106.464844 82.433594 105.242188 C 83.59375 103.96875 84.636719 103.535156 87.507812 103.144531 C 92.191406 102.507812 95.171875 101.300781 97.621094 99.050781 C 99.746094 97.097656 100.632812 95.214844 100.769531 92.382812 L 100.875 90.234375 L 99.6875 88.851562 C 95.386719 83.851562 53.835938 47.976562 53.574219 47.976562 C 53.515625 47.976562 54.933594 49.746094 56.71875 51.90625 Z M 66.667969 152.398438 C 67.640625 150.679688 67.125 148.472656 65.5 147.390625 C 63.960938 146.375 61.574219 146.855469 61.574219 148.183594 C 61.574219 148.585938 61.800781 148.882812 62.304688 149.140625 C 63.160156 149.578125 63.21875 150.070312 62.550781 151.078125 C 61.871094 152.097656 61.925781 152.992188 62.703125 153.601562 C 63.960938 154.582031 65.738281 154.039062 66.667969 152.398438 Z M 66.667969 152.398438 "/>
<path style=" stroke:none;fill-rule:evenodd;fill:rgb(100%,0%,47.843137%);fill-opacity:1;" d="M 103.828125 104.273438 C 101.632812 104.945312 99.496094 107.269531 98.835938 109.703125 C 98.433594 111.1875 98.660156 113.792969 99.265625 114.601562 C 100.242188 115.898438 101.183594 116.242188 103.742188 116.222656 C 108.746094 116.1875 113.097656 114.050781 113.601562 111.375 C 114.015625 109.179688 112.105469 106.140625 109.472656 104.804688 C 108.117188 104.117188 105.226562 103.84375 103.828125 104.273438 Z M 109.679688 108.832031 C 110.453125 107.742188 110.113281 106.558594 108.800781 105.757812 C 106.300781 104.238281 102.523438 105.496094 102.523438 107.851562 C 102.523438 109.023438 104.492188 110.300781 106.300781 110.300781 C 107.503906 110.300781 109.148438 109.585938 109.679688 108.832031 Z M 109.679688 108.832031 "/>
</g>
</svg>
